icons/svg/subway/subway_lisbon.svg

<?xml version="1.0" encoding="UTF-8" standalone="no"?>
<svg
   xmlns:dc="http://purl.org/dc/elements/1.1/"
   xmlns:cc="http://creativecommons.org/ns#"
   xmlns:rdf="http://www.w3.org/1999/02/22-rdf-syntax-ns#"
   xmlns:svg="http://www.w3.org/2000/svg"
   xmlns="http://www.w3.org/2000/svg"
   xmlns:sodipodi="http://sodipodi.sourceforge.net/DTD/sodipodi-0.dtd"
   xmlns:inkscape="http://www.inkscape.org/namespaces/inkscape"
   width="16"
   height="16"
   id="svg2"
   version="1.1"
   inkscape:version="0.91 r13725"
   sodipodi:docname="subway_lisbon.svg">
  <defs
     id="defs13">
    <sodipodi:namedview
       inkscape:current-layer="svg2"
       inkscape:window-maximized="1"
       inkscape:window-y="-8"
       inkscape:window-x="-8"
       inkscape:cy="65"
       inkscape:cx="77.5"
       inkscape:zoom="1.8153846"
       showgrid="false"
       id="namedview8-4"
       inkscape:window-height="837"
       inkscape:window-width="1440"
       inkscape:pageshadow="2"
       inkscape:pageopacity="0"
       guidetolerance="10"
       gridtolerance="10"
       objecttolerance="10"
       borderopacity="1"
       bordercolor="#666666"
       pagecolor="#ffffff" />
    <sodipodi:namedview
       inkscape:current-layer="svg2"
       inkscape:window-maximized="1"
       inkscape:window-y="-8"
       inkscape:window-x="-8"
       inkscape:cy="65"
       inkscape:cx="77.5"
       inkscape:zoom="1.8153846"
       showgrid="false"
       id="namedview8-1"
       inkscape:window-height="837"
       inkscape:window-width="1440"
       inkscape:pageshadow="2"
       inkscape:pageopacity="0"
       guidetolerance="10"
       gridtolerance="10"
       objecttolerance="10"
       borderopacity="1"
       bordercolor="#666666"
       pagecolor="#ffffff" />
  </defs>
  <sodipodi:namedview
     pagecolor="#ffffff"
     bordercolor="#666666"
     borderopacity="1"
     objecttolerance="10"
     gridtolerance="10"
     guidetolerance="10"
     inkscape:pageopacity="0"
     inkscape:pageshadow="2"
     inkscape:window-width="1920"
     inkscape:window-height="1006"
     id="namedview11"
     showgrid="true"
     inkscape:zoom="22.627417"
     inkscape:cx="9.3748519"
     inkscape:cy="10.412697"
     inkscape:window-x="1920"
     inkscape:window-y="0"
     inkscape:window-maximized="1"
     inkscape:current-layer="svg2"
     showguides="false">
    <sodipodi:guide
       position="0,0"
       orientation="0,580"
       id="guide2989" />
    <sodipodi:guide
       position="580,0"
       orientation="-580,0"
       id="guide2991" />
    <sodipodi:guide
       position="580,580"
       orientation="0,-580"
       id="guide2993" />
    <sodipodi:guide
       position="0,580"
       orientation="580,0"
       id="guide2995" />
    <sodipodi:guide
       position="0,0"
       orientation="0,580"
       id="guide2997" />
    <sodipodi:guide
       position="580,0"
       orientation="-580,0"
       id="guide2999" />
    <sodipodi:guide
       position="580,580"
       orientation="0,-580"
       id="guide3001" />
    <sodipodi:guide
       position="0,580"
       orientation="580,0"
       id="guide3003" />
    <inkscape:grid
       type="xygrid"
       id="grid3013"
       empspacing="5"
       visible="true"
       enabled="true"
       snapvisiblegridlinesonly="true" />
  </sodipodi:namedview>
  <metadata
     id="metadata2975">image/svg+xmlen<rdf:RDF>
  <cc:Work
     rdf:about="">
    <dc:format>image/svg+xml</dc:format>
    <dc:type
       rdf:resource="http://purl.org/dc/dcmitype/StillImage" />
    <dc:title />
  </cc:Work>
</rdf:RDF>
</metadata>
  <path
     style="color:#000000;clip-rule:nonzero;display:inline;overflow:visible;visibility:visible;opacity:1;isolation:auto;mix-blend-mode:normal;color-interpolation:sRGB;color-interpolation-filters:linearRGB;solid-color:#000000;solid-opacity:1;fill:#fefefe;fill-opacity:1;fill-rule:nonzero;stroke-width:1;stroke-linecap:butt;stroke-linejoin:miter;stroke-miterlimit:4;stroke-dasharray:none;stroke-dashoffset:0;stroke-opacity:1;color-rendering:auto;image-rendering:auto;shape-rendering:auto;text-rendering:auto;enable-background:accumulate"
     d="M 10.945312,3.7207031 C 8.9675312,3.7445577 6.8148209,4.1755 4.8242188,4.9980469 4.6046113,5.0880221 4.4611053,5.3017379 4.4609375,5.5390625 c -0.00119,2.0525381 0.00119,4.1031152 0,6.1542965 -4.586e-4,0.323794 0.2621433,0.586396 0.5859375,0.585938 3.1108388,-1.14e-4 3.4939874,0 5.90625,0 0.323794,4.58e-4 0.586396,-0.262144 0.585937,-0.585938 0,-7.3867184 0,-4.1437262 0,-7.3867184 4.98e-4,-0.3268759 -0.266909,-0.5907647 -0.59375,-0.5859375 z"
     id="path4218"
     inkscape:connector-curvature="0"
     sodipodi:nodetypes="ccccccccc" />
  <path
     style="color:#000000;clip-rule:nonzero;display:inline;overflow:visible;visibility:visible;opacity:1;isolation:auto;mix-blend-mode:normal;color-interpolation:sRGB;color-interpolation-filters:linearRGB;solid-color:#000000;solid-opacity:1;fill:#f25e2c;fill-opacity:1;fill-rule:nonzero;stroke-width:1;stroke-linecap:butt;stroke-linejoin:miter;stroke-miterlimit:4;stroke-dasharray:none;stroke-dashoffset:0;stroke-opacity:1;color-rendering:auto;image-rendering:auto;shape-rendering:auto;text-rendering:auto;enable-background:accumulate"
     d="M 5.0477531,5.5384602 C 6.9666294,4.7455515 9.0552573,4.3289069 10.952592,4.3060226 l 0,3.9880326 -1.4092078,0.9020059 -2.3205184,-1.1149177 -0.012974,3.6128346 -2.1621392,0 c 0.00119,-2.0518609 -0.00119,-4.1036582 0,-6.1555178 z m 3.2035584,4.1547875 1.2930144,0.6690023 1.4082661,-0.8913837 0,2.2231147 -2.7012361,0 z"
     id="path4161"
     inkscape:connector-curvature="0"
     sodipodi:nodetypes="cccccccccccccc" />
</svg>

<svg width="16" height="16" viewBox="0 0 16 16" fill="none" xmlns="http://www.w3.org/2000/svg">
<path d="M10.9453 3.72071C8.96751 3.74456 6.8148 4.1755 4.8242 4.99805C4.60459 5.08803 4.46108 5.30174 4.46091 5.53907C4.45972 7.5916 4.4621 9.64218 4.46091 11.6934C4.46046 12.0172 4.72306 12.2798 5.04685 12.2793C8.15769 12.2792 8.54084 12.2793 10.9531 12.2793C11.2769 12.2798 11.5395 12.0172 11.539 11.6934C11.539 4.30665 11.539 7.54964 11.539 4.30664C11.5395 3.97977 11.2721 3.71588 10.9453 3.72071V3.72071Z" fill="#FEFEFE"/>
<path d="M5.04777 5.53847C6.96665 4.74556 9.05527 4.32891 10.9526 4.30603V8.29406L9.5434 9.19607L7.22288 8.08115L7.20991 11.694H5.04777C5.04896 9.64213 5.04658 7.59033 5.04777 5.53847H5.04777ZM8.25133 9.69326L9.54434 10.3623L10.9526 9.47087V11.694H8.25137L8.25133 9.69326Z" fill="#F25E2C"/>
</svg>
